**kern
*clefG2
*k[b-e-]
*M4/4
*MM190
=1
1r
=2
*k[f#c#g#]
1r
=3
1r
=4
1r
=5
1r
=6
1r
=7
1r
=8
1r
=9
1r
=10
1r
=11
1r
=12
1r
=13
1r
=14
1r
=15
1r
=16
1r
=17
2r
4r
4F#
=18
4.B
8c#
2B
=19
4r
8r
8F#
8.eL
[16d#XJk
8d#L]
8c#J
=20
2B
2r
=21
2r
4B
4c#
=22
8d#XL
8c#
8d#
8eJ
8d#L
8B
8B
8c#J
=23
8d#XL
8c#
8d#
8eJ
8d#
4c#
[8B
=24
2B]
2r
=25
1r
=26
4.B
8F#
2F#
=27
4r
8r
8F#
8.eL
[16d#XJk
8d#L]
8c#J
=28
2B
2r
=29
2r
4B
4c#
=30
8d#XL
8c#
8d#
8eJ
8d#L
8B
8B
8c#J
=31
4d#X
8d#L
8eJ
4d#
8c#L
[8BJ
=32
2B]
2r
=33
2r
4B
4c#
=34
8d#XL
8c#
8d#
8c#J
8d#L
8c#
8B
8c#J
=35
4d#X
8d#L
8eJ
4d#
8c#L
[8BJ
=36
2B]
2r
=37
1r
=38
8BL
8c#
8d#X
8BJ
8c#L
8d#
8B
8c#J
=39
8d#XL
8B
8c#
8d#J
8BL
8c#
8d#
8BJ
=40
2.f#
8c#L
[8c#J
=41
2c#]
2r
=42
8BL
8c#
8d#X
8BJ
8c#L
8d#
8B
8c#J
=43
8d#XL
8B
8c#
8d#J
8BL
8c#
8d#
8BJ
=44
2.f#
8c#L
[8c#J
=45
2c#]
4r
8A#XL
8G#J
=46
4A#X
8G#L
[8A#J
8A#L]
8G#J
[4B
=47
2B]
4G#
8r
8F#
=48
4c#
8c#L
[8c#J
8c#L]
8d#XJ
4e
=49
2d#X
4r
8r
8F#
=50
4A#X
8G#L
[8A#J
8A#L]
8G#J
[4B
=51
4B]
4c#
2B
=52
[2.d#X
8d#L]
8c#J
=53
[2.c#
8c#L]
8BJ
=54
[2.B
8BL]
8c#J
=55
2c#
8r
8BL
8B
8BJ
=56
4f#
4f#
4f#
8d#XL
8c#J
=57
8c#
4c#
[8B
8BL]
8B
8B
8BJ
=58
8f#
4f#
8f#
8f#L
8d#X
8d#
[8c#J
=59
4.c#]
8B
8BL
8c#
8d#X
[8c#J
=60
8c#L]
8B
8B
8G#J
8BL
8c#
8d#X
[8c#J
=61
8c#L]
8B
8B
8G#J
8BL
8G#J
4B
=62
4f#
8d#XL
[8f#J
8f#]
4d#
[8c#
=63
2c#]
8r
8BL
8B
8BJ
=64
4f#
4f#
4f#
8d#XL
[8c#J
=65
8c#]
4c#
[8B
8BL]
8B
8B
8BJ
=66
4f#
8f#L
[8f#J
8f#]
4d#X
[8c#
=67
4.c#]
[8B
8BL]
8c#
8d#X
[8c#J
=68
8c#L]
8B
8B
8G#J
8BL
8c#
8d#X
[8c#J
=69
8c#L]
8B
8B
8G#J
8BL
8c#
8d#X
[8c#J
=70
8c#L]
8BJ
2.B
=71
4r
8BL
8G#J
4B
8d#XL
[8c#J
=72
8c#L]
8B
8B
8G#J
8BL
8c#
8d#X
[8c#J
=73
8c#L]
8B
8B
8G#J
8BL
8c#
8d#X
[8c#J
=74
4c#]
2.B
=75
1r
=76
1r
=77
1r
=78
1r
=79
1r
=80
1r
=81
1r
=82
1r
=83
1r
=84
4.B
8F#
2F#
=85
4r
8r
8F#
8.eL
[16d#XJk
8d#L]
8c#J
=86
2B
2r
=87
2r
4B
4c#
=88
8d#XL
8c#
8d#
8d#J
8d#L
8c#J
4B
=89
8d#XL
8c#
8d#
8eJ
4d#
8c#L
[8BJ
=90
2B]
2r
=91
1r
=92
4.B
8F#
2F#
=93
4r
4F#
8.eL
[16d#XJk
8d#L]
8c#J
=94
2B
2r
=95
2r
4B
4c#
=96
8d#XL
8c#
8d#
8eJ
8d#L
8B
8B
8c#J
=97
8d#XL
8c#J
4d#'
4d#
8c#L
[8BJ
=98
2B]
2r
=99
2r
4B
4c#
=100
8d#XL
8c#
8d#
8eJ
8d#L
8B
8B
8c#J
=101
8d#XL
8c#
8d#
8eJ
8.d#L
[16c#Jk
8c#L]
[8BJ
=102
2B]
2r
=103
1r
=104
8BL
8c#
8d#X
8BJ
8c#L
8d#
8B
8c#J
=105
8d#XL
8B
8c#
8d#J
8BL
8c#
8d#
8BJ
=106
2.f#
8c#L
[8c#J
=107
2c#]
2r
=108
8BL
8c#
8d#X
8BJ
8c#L
8d#
8B
8c#J
=109
8d#XL
8B
8c#
8d#J
8BL
8c#
8d#
8BJ
=110
2.f#
8c#L
[8c#J
=111
1c#]
=112
4A#X
8G#L
[8A#J
8A#L]
8G#J
[4B
=113
4B]
4G#
4.F#
8F#
=114
4c#
8c#L
[8c#J
8c#L]
8d#XJ
4e
=115
2d#X
4r
8r
8F#
=116
4A#X
8G#L
[8A#J
8A#L]
8G#J
[4B
=117
4B]
4c#
2B
=118
[2.d#X
8d#L]
8c#J
=119
[2.c#
8c#L]
8BJ
=120
[2.B
8BL]
8c#J
=121
2c#
8r
8BL
8B
8BJ
=122
4f#
4f#
4f#
8d#XL
8c#J
=123
8c#
4c#
[8B
8BL]
8B
8B
8BJ
=124
8f#
4f#
8f#
8f#L
8d#X
8d#
[8c#J
=125
4.c#]
8B
8BL
8c#
8d#X
[8c#J
=126
8c#L]
8B
8B
8G#J
8BL
8c#
8d#X
[8c#J
=127
8c#L]
8B
8B
8G#J
8BL
8G#J
4B
=128
4f#
8d#XL
[8f#J
8f#]
4d#
[8c#
=129
2c#]
8r
8BL
8B
8BJ
=130
4f#
4f#
4f#
8d#XL
[8c#J
=131
8c#]
4c#
[8B
8BL]
8B
8B
8BJ
=132
8f#L
8f#
8f#
8f#J
8f#L
8d#X
8d#
[8c#J
=133
4.c#]
[8B
8BL]
8c#
8d#X
[8c#J
=134
8c#L]
8B
8B
8G#J
8BL
8c#
8d#X
[8c#J
=135
8c#L]
8B
8B
8G#J
8BL
8c#
8d#X
[8c#J
=136
8c#L]
8BJ
2.B
=137
4r
4G#
4B
8d#XL
[8c#J
=138
8c#L]
8B
8B
8G#J
8BL
8c#
8d#X
[8c#J
=139
8c#L]
8B
8B
8G#J
8BL
8c#
8d#X
[8c#J
=140
8c#L]
8BJ
2.B
=141
1r
=142
1r
=143
1r
=144
1r
=145
1r
=146
1r
=147
1r
=148
1r
=149
1r
=150
1r
=151
1r
=152
1r
=153
1r
=154
1r
=155
1r
=156
1r
=157
1r
=158
1r
=159
1r
=160
1r
=161
1r
=162
1r
=163
1r
=164
1r
=165
1r
=166
1r
=167
1r
=168
1r
=169
1r
=170
1r
=171
1r
=172
1r
=173
1r
=174
1r
=175
1r
=176
1r
=177
1r
=178
1r
=179
1r
=180
1r
=181
1r
=182
1r
=183
1r
=184
1r
=185
1r
=186
2r
4f#
4f#
=187
4f#
8d#XL
8c#J
8c#
4c#
[8B
=188
8BL]
8B
8B
8BJ
8f#
4f#
8f#
=189
8f#L
8d#X
8d#
[8c#J
4.c#]
8B
=190
8BL
8c#
8d#X
[8c#J
8c#L]
8B
8B
8G#J
=191
8BL
8c#
8d#X
[8c#J
8c#L]
8B
8B
8G#J
=192
8BL
8G#J
4B
4f#
8d#XL
[8f#J
=193
8f#]
4d#X
[8c#
2c#]
=194
8r
8BL
8B
8BJ
4f#
4f#
=195
4f#
8d#XL
[8c#J
8c#]
4c#
[8B
=196
8BL]
8B
8B
8BJ
4f#
8f#L
[8f#J
=197
8f#]
4d#X
[8c#
4.c#]
[8B
=198
8BL]
8c#
8d#X
[8c#J
8c#L]
8B
8B
8G#J
=199
8BL
8c#
8d#X
[8c#J
8c#L]
8B
8B
8G#J
=200
8BL
8c#
8d#X
[8c#J
8c#L]
8BJ
[4B
=201
2B]
4r
4G#
=202
4B
8d#XL
[8c#J
8c#L]
8B
8B
8G#J
=203
8BL
8c#
8d#X
[8c#J
8c#L]
8B
8B
8G#J
=204
8BL
8c#
8d#X
[8c#J
8c#L]
8BJ
[4B
=205
2B]
2r
==
*-
